X:155
T:Peggy of Darby or the Dandys
B:Aird's Airs and Melodies vol 3
M:C
Z:Richard Robinson 
%RRN:Irish
%%TUNEURL: http://www.leeds.ac.uk/music/Info/RRTuneBk/gettune/000001af.html
%%ID:000001af
K:D
A|\
.d2.d>.d (dc)(BA)| d2d>e dcBA| d2d>d d>faf| ecA>B A3::
f|\
g>efg a2fd| dG G>FGA| B>cdB cecA| FAdc d3:|
